X:1
T:Jackie Coleman's
R:reel
Z: id:dc-reel-143
M:C
L:1/8
K:D Major
B|"D"AFF2 EFDE|F2AF BFAF|"Em"E2BE dEBE|"A"ABde "G"fedB|"D"AFF2 EFDE|F2AF BFAF|"Em"E2BE dEBE|"A"ABde "D"fdd:|
e|"D"fddc dfag|fddc dfaf|"A"eA~A2 eAfA|eA~A2 efge|"D"fddc dfag|fddc dfaf|"G"g2gf gbag|"A"faeg "D"fdd:|
